X: 1
T: Bobby Gardiner's
M: 6/8
L: 1/8
R: jig
K: Dmaj
FAA AFD|FAA AFD|GBB BAB|BAB Bcd|
FAA AFD|FAB AFD|FAc dBA|AFD EDE:|
FED AFD|BdB AFD|FED AFD|BAG FGE|
FED AFD|BdB AFD|FAc dBA|AFD EDE:|
